assets/icons/download.svg

<svg fill="none" height="28" viewBox="0 0 28 28" width="28" xmlns="http://www.w3.org/2000/svg"><g stroke="#fff" stroke-linecap="round" stroke-linejoin="round" stroke-width="3"><path d="m24.5 17.5v4.6667c0 .6188-.2458 1.2123-.6834 1.6499s-1.0311.6834-1.6499.6834h-16.33337c-.61884 0-1.21233-.2458-1.64991-.6834-.43759-.4376-.68342-1.0311-.68342-1.6499v-4.6667"/><path d="m8.16666 11.6666 5.83334 5.8334 5.8333-5.8334"/><path d="m14 17.5v-14"/></g></svg>

<svg width="28" height="28" viewBox="0 0 28 28" fill="none" xmlns="http://www.w3.org/2000/svg">
<path d="M24.5 17.5V22.1667C24.5 22.7855 24.2542 23.379 23.8166 23.8166C23.379 24.2542 22.7855 24.5 22.1667 24.5H5.83333C5.21449 24.5 4.621 24.2542 4.18342 23.8166C3.74583 23.379 3.5 22.7855 3.5 22.1667V17.5" stroke="white" stroke-width="3" stroke-linecap="round" stroke-linejoin="round"/>
<path d="M8.16666 11.6666L14 17.5L19.8333 11.6666" stroke="white" stroke-width="3" stroke-linecap="round" stroke-linejoin="round"/>
<path d="M14 17.5V3.5" stroke="white" stroke-width="3" stroke-linecap="round" stroke-linejoin="round"/>
</svg>
